src/rail-light-18.svg

<?xml version="1.0" encoding="UTF-8" standalone="no"?>
<!-- Created with Inkscape (http://www.inkscape.org/) -->

<svg
   xmlns:dc="http://purl.org/dc/elements/1.1/"
   xmlns:cc="http://creativecommons.org/ns#"
   xmlns:rdf="http://www.w3.org/1999/02/22-rdf-syntax-ns#"
   xmlns:svg="http://www.w3.org/2000/svg"
   xmlns="http://www.w3.org/2000/svg"
   xmlns:inkscape="http://www.inkscape.org/namespaces/inkscape"
   version="1.1"
   width="18"
   height="18"
   id="svg4619">
  <defs
     id="defs4621" />
  <metadata
     id="metadata4624">
    <rdf:RDF>
      <cc:Work
         rdf:about="">
        <dc:format>image/svg+xml</dc:format>
        <dc:type
           rdf:resource="http://purl.org/dc/dcmitype/StillImage" />
        <dc:title />
      </cc:Work>
    </rdf:RDF>
  </metadata>
  <g
     transform="translate(0,-1034.3622)"
     id="layer1">
    <path
       d="M 9.5,1 C 6.4892909,1 4,3.4029 4,6.375 3.9998504,8.0882 4,9.86775 4,11.34375 4,12.03585 4.4303163,12.625475 5.03125,12.875 5.0248086,12.92134 4.9991698,12.952891 5,13 c -0.5235845,5.2e-5 -0.9999476,0.476416 -1,1 l 0,1 c 5.24e-5,0.523584 0.4764155,0.999948 1,1 l 4,0 c 0.1844845,-1.8e-5 0.3460107,-0.05673 0.5,-0.15625 C 9.6539893,15.943266 9.8155155,15.999982 10,16 l 4,0 c 0.523584,-5.2e-5 0.999948,-0.476416 1,-1 l 0,-1 c -5.2e-5,-0.523584 -0.476416,-0.999948 -1,-1 -4e-6,-0.04363 -0.02488,-0.08227 -0.03125,-0.125 C 14.569684,12.625475 15,12.03585 15,11.34375 L 15,6.375 C 15,3.4029 12.510709,1 9.5,1 z M 8,5.1875 8,7 7.5,7 7.5,6.5 C 7.5,5.9982 7.6951723,5.5367 8,5.1875 z m 3,0 C 11.315661,5.5349 11.5,5.988 11.5,6.5 L 11.5,7 11,7 11,5.1875 z"
       inkscape:connector-curvature="0"
       transform="translate(0,1034.3622)"
       id="path3102"
       style="font-size:medium;font-style:normal;font-variant:normal;font-weight:normal;font-stretch:normal;text-indent:0;text-align:start;text-decoration:none;line-height:normal;letter-spacing:normal;word-spacing:normal;text-transform:none;direction:ltr;block-progression:tb;writing-mode:lr-tb;text-anchor:start;baseline-shift:baseline;opacity:0.3;color:#000000;fill:#ffffff;fill-opacity:1;stroke:none;stroke-width:2;marker:none;visibility:visible;display:inline;overflow:visible;enable-background:accumulate;font-family:Sans;-inkscape-font-specification:Sans" />
    <path
       d="M 9.5,2 C 7.0147186,2 5,3.9587535 5,6.375 4.9998504,8.0880318 5,9.86775 5,11.34375 5,11.70385 5.3039615,12 5.6875,12 l 7.625,0 C 13.696039,12 14,11.70385 14,11.34375 L 14,6.375 C 14,3.9587535 11.985281,2 9.5,2 z M 8.90625,3.5625 c 0.030498,-0.00624 0.062923,0.00531 0.09375,0 L 9,8 6.5,8 6.5,6.5 C 6.5,5.0502442 7.5392006,3.8422371 8.90625,3.5625 z M 10,3.5625 C 11.412646,3.8057143 12.5,5.0179013 12.5,6.5 L 12.5,8 10,8 10,3.5625 z M 6.5,9.5 8,9.5 8,11 6.5,11 6.5,9.5 z m 4.5,0 1.5,0 0,1.5 -1.5,0 0,-1.5 z"
       inkscape:connector-curvature="0"
       transform="translate(0,1034.3622)"
       id="rect3109-8"
       style="fill:#444444;fill-opacity:1;stroke:none" />
    <path
       d="m 9,1047.3622 -3,0 0,1 -1,0 0,1 4,0 z"
       inkscape:connector-curvature="0"
       id="path3787-5"
       style="fill:#444444;fill-opacity:1;stroke:none" />
    <path
       d="m 10,1047.3622 3,0 0,1 1,0 0,1 -4,0 z"
       inkscape:connector-curvature="0"
       id="path3122"
       style="fill:#444444;fill-opacity:1;stroke:none" />
  </g>
  <rect
     width="18"
     height="18"
     x="0"
     y="0"
     id="canvas"
     style="fill:none;stroke:none;visibility:hidden" />
</svg>

<?xml version="1.0" encoding="UTF-8" standalone="no"?>
<!-- Created with Inkscape (http://www.inkscape.org/) -->

<svg
   xmlns:dc="http://purl.org/dc/elements/1.1/"
   xmlns:cc="http://creativecommons.org/ns#"
   xmlns:rdf="http://www.w3.org/1999/02/22-rdf-syntax-ns#"
   xmlns:svg="http://www.w3.org/2000/svg"
   xmlns="http://www.w3.org/2000/svg"
   xmlns:sodipodi="http://sodipodi.sourceforge.net/DTD/sodipodi-0.dtd"
   xmlns:inkscape="http://www.inkscape.org/namespaces/inkscape"
   width="18"
   height="18"
   id="svg4619"
   version="1.1"
   inkscape:version="0.48.2 r9819"
   sodipodi:docname="rail-light-18.svg">
  <defs
     id="defs4621" />
  <sodipodi:namedview
     id="base"
     pagecolor="#ffffff"
     bordercolor="#666666"
     borderopacity="1.0"
     inkscape:pageopacity="0.0"
     inkscape:pageshadow="2"
     inkscape:zoom="48.266667"
     inkscape:cx="9.4999668"
     inkscape:cy="9.5"
     inkscape:document-units="px"
     inkscape:current-layer="layer1"
     showgrid="true"
     showguides="false"
     inkscape:guide-bbox="true"
     inkscape:window-width="1313"
     inkscape:window-height="942"
     inkscape:window-x="88"
     inkscape:window-y="70"
     inkscape:window-maximized="0">
    <inkscape:grid
       type="xygrid"
       id="grid4627"
       empspacing="2"
       visible="true"
       enabled="true"
       snapvisiblegridlinesonly="true"
       color="#ff00ff"
       opacity="0.1254902"
       empcolor="#ff00ff"
       empopacity="0.25098039" />
    <sodipodi:guide
       orientation="0,1"
       position="7,18"
       id="guide4659" />
    <sodipodi:guide
       orientation="1,0"
       position="18,9"
       id="guide4661" />
    <sodipodi:guide
       orientation="0,1"
       position="16,17"
       id="guide4663" />
    <sodipodi:guide
       orientation="1,0"
       position="17,12"
       id="guide4665" />
    <sodipodi:guide
       orientation="1,0"
       position="0,16"
       id="guide4667" />
    <sodipodi:guide
       orientation="0,1"
       position="8,0"
       id="guide4669" />
    <sodipodi:guide
       orientation="1,0"
       position="2,10"
       id="guide4671" />
    <sodipodi:guide
       orientation="0,1"
       position="12,2"
       id="guide4673" />
    <sodipodi:guide
       orientation="0,1"
       position="12,16"
       id="guide3010" />
    <sodipodi:guide
       orientation="1,0"
       position="3,11.5"
       id="guide3012" />
    <sodipodi:guide
       orientation="1,0"
       position="16,8.5"
       id="guide3016" />
    <sodipodi:guide
       orientation="1,0"
       position="9.5,9"
       id="guide3804" />
    <sodipodi:guide
       orientation="0,1"
       position="10,3"
       id="guide3095" />
  </sodipodi:namedview>
  <metadata
     id="metadata4624">
    <rdf:RDF>
      <cc:Work
         rdf:about="">
        <dc:format>image/svg+xml</dc:format>
        <dc:type
           rdf:resource="http://purl.org/dc/dcmitype/StillImage" />
        <dc:title />
      </cc:Work>
    </rdf:RDF>
  </metadata>
  <g
     inkscape:label="Layer 1"
     inkscape:groupmode="layer"
     id="layer1"
     transform="translate(0,-1034.3622)">
    <path
       style="font-size:medium;font-style:normal;font-variant:normal;font-weight:normal;font-stretch:normal;text-indent:0;text-align:start;text-decoration:none;line-height:normal;letter-spacing:normal;word-spacing:normal;text-transform:none;direction:ltr;block-progression:tb;writing-mode:lr-tb;text-anchor:start;baseline-shift:baseline;color:#000000;fill:#ffffff;fill-opacity:1;stroke:none;stroke-width:2;marker:none;visibility:visible;display:inline;overflow:visible;enable-background:accumulate;font-family:Sans;-inkscape-font-specification:Sans;opacity:0.3"
       d="M 9.5 1 C 6.4892909 1 4 3.4029 4 6.375 C 3.9998504 8.0882 4 9.86775 4 11.34375 C 4 12.03585 4.4303163 12.625475 5.03125 12.875 C 5.0248086 12.92134 4.9991698 12.952891 5 13 C 4.4764155 13.000052 4.0000524 13.476416 4 14 L 4 15 C 4.0000524 15.523584 4.4764155 15.999948 5 16 L 9 16 C 9.1844845 15.999982 9.3460107 15.943266 9.5 15.84375 C 9.6539893 15.943266 9.8155155 15.999982 10 16 L 14 16 C 14.523584 15.999948 14.999948 15.523584 15 15 L 15 14 C 14.999948 13.476416 14.523584 13.000052 14 13 C 13.999996 12.956368 13.975121 12.917728 13.96875 12.875 C 14.569684 12.625475 15 12.03585 15 11.34375 L 15 6.375 C 15 3.4029 12.510709 1 9.5 1 z M 8 5.1875 L 8 7 L 7.5 7 L 7.5 6.5 C 7.5 5.9982 7.6951723 5.5367 8 5.1875 z M 11 5.1875 C 11.315661 5.5349 11.5 5.988 11.5 6.5 L 11.5 7 L 11 7 L 11 5.1875 z "
       transform="translate(0,1034.3622)"
       id="path3102" />
    <path
       style="fill:#444444;fill-opacity:1;stroke:none"
       d="M 9.5 2 C 7.0147186 2 5 3.9587535 5 6.375 C 4.9998504 8.0880318 5 9.86775 5 11.34375 C 5 11.70385 5.3039615 12 5.6875 12 L 13.3125 12 C 13.696039 12 14 11.70385 14 11.34375 L 14 6.375 C 14 3.9587535 11.985281 2 9.5 2 z M 8.90625 3.5625 C 8.9367478 3.5562593 8.9691727 3.5678075 9 3.5625 L 9 8 L 6.5 8 L 6.5 6.5 C 6.5 5.0502442 7.5392006 3.8422371 8.90625 3.5625 z M 10 3.5625 C 11.412646 3.8057143 12.5 5.0179013 12.5 6.5 L 12.5 8 L 10 8 L 10 3.5625 z M 6.5 9.5 L 8 9.5 L 8 11 L 6.5 11 L 6.5 9.5 z M 11 9.5 L 12.5 9.5 L 12.5 11 L 11 11 L 11 9.5 z "
       transform="translate(0,1034.3622)"
       id="rect3109-8" />
    <path
       style="fill:#444444;fill-opacity:1;stroke:none"
       d="m 9,1047.3622 -3,0 0,1 -1,0 0,1 4,0 z"
       id="path3787-5"
       inkscape:connector-curvature="0"
       sodipodi:nodetypes="ccccccc" />
    <path
       sodipodi:nodetypes="ccccccc"
       inkscape:connector-curvature="0"
       id="path3122"
       d="m 10,1047.3622 3,0 0,1 1,0 0,1 -4,0 z"
       style="fill:#444444;fill-opacity:1;stroke:none" />
  </g>
</svg>
